packages/Snapp/src/RetakeIcon/index.svg

<?xml version="1.0" encoding="UTF-8"?>
<svg width="24px" height="24px" viewBox="0 0 24 24" version="1.1" xmlns="http://www.w3.org/2000/svg" xmlns:xlink="http://www.w3.org/1999/xlink">
    <title>Icons/24/Retake</title>
    <g id="Icons/24/Retake" stroke="none" stroke-width="1" fill="none" fill-rule="evenodd">
        <rect id="Container" fill-opacity="0" fill="#D8D8D8" fill-rule="nonzero" x="0" y="0" width="24" height="24"></rect>
        <path d="M14.9998,2.9999 C15.3968,2.9999 15.7568,3.2349 15.9158,3.5989 L15.9158,3.5989 L16.6538,5.2849 L18.9998,5.2859 C20.5978,5.2859 21.9028,6.5349 21.9948,8.1089 L21.9948,8.1089 L21.9998,8.2859 L21.9998,17.9999 C21.9998,19.6569 20.6568,20.9999 18.9998,20.9999 L18.9998,20.9999 L4.9998,20.9999 C3.3428,20.9999 1.9998,19.6569 1.9998,17.9999 L1.9998,17.9999 L1.9998,8.2869 C1.9998,6.6289 3.3428,5.2859 4.9998,5.2859 L4.9998,5.2859 L7.3448,5.2849 L8.0838,3.5989 C8.2258,3.2759 8.5248,3.0539 8.8688,3.0089 L8.8688,3.0089 L8.9998,2.9999 Z M14.3448,4.9999 L9.6538,4.9999 L8.9168,6.6869 C8.7748,7.0099 8.4748,7.2319 8.1308,7.2769 L8.1308,7.2769 L7.9998,7.2859 L4.9998,7.2859 C4.4478,7.2859 3.9998,7.7329 3.9998,8.2859 L3.9998,8.2859 L3.9998,17.9999 C3.9998,18.5519 4.4478,18.9999 4.9998,18.9999 L4.9998,18.9999 L18.9998,18.9999 C19.5528,18.9999 19.9998,18.5519 19.9998,17.9999 L19.9998,17.9999 L19.9998,8.2859 C19.9998,7.7329 19.5528,7.2859 18.9998,7.2859 L18.9998,7.2859 L15.9998,7.2859 C15.6028,7.2859 15.2428,7.0509 15.0838,6.6869 L15.0838,6.6869 L14.3448,4.9999 Z M9.2575,8.959 C9.3335,8.914 9.4275,8.924 9.4915,8.978 L9.4915,8.978 L9.5325,9.027 L10.0085,9.818 C11.8445,8.715 14.2095,9.258 15.3895,11.018 L15.3895,11.018 L15.4955,11.187 C16.7955,13.35 15.8115,16.248 13.2435,17.076 C11.8665,17.519 10.2995,17.144 9.2775,16.122 C9.1125,15.956 8.8075,15.536 8.7825,15.506 C8.7655,15.48 8.7285,15.43 8.7315,15.429 C8.6175,15.264 8.5355,15.074 8.5355,14.858 C8.5355,14.293 8.9905,13.835 9.5515,13.835 C9.9005,13.835 10.2045,14.015 10.3865,14.286 L10.3865,14.286 L10.4562037,14.3914074 C10.5231667,14.4915556 10.6191667,14.6306667 10.6725,14.684 C11.1925,15.205 12.0055,15.387 12.7015,15.146 C13.9515,14.713 14.4235,13.286 13.7825,12.217 C13.2395,11.313 12.0945,10.993 11.1685,11.46 L11.1685,11.46 L11.0375,11.534 L11.5635,12.407 C11.5785,12.433 11.5885,12.462 11.5905,12.492 L11.5905,12.492 L11.5895,12.538 C11.5775,12.628 11.5055,12.697 11.4185,12.708 L11.4185,12.708 L11.3645,12.708 L8.2465,12.282 C8.2325,12.28 8.2185,12.276 8.2045,12.271 C8.1185,12.239 8.0675,12.154 8.0745,12.067 L8.0745,12.067 L8.0865,12.015 L9.1735,9.061 C9.1885,9.018 9.2185,8.982 9.2575,8.959 Z" id="Combined-Shape" fill="#404040"></path>
    </g>
</svg>

<svg viewBox="0 0 24 24" xmlns="http://www.w3.org/2000/svg" fill="currentColor" focusable="false">
  <path d="M15 3a1 1 0 01.916.599l.738 1.686H19a3 3 0 012.995 2.824l.005.177V18a3 3 0 01-3 3H5a3 3 0 01-3-3V8.287a3 3 0 013-3.001l2.345-.001.739-1.686a1 1 0 01.785-.59l.13-.01zm-.655 2H9.654l-.737 1.687a1.001 1.001 0 01-.786.59L8 7.286H5a1 1 0 00-1 1V18a1 1 0 001 1h14a1 1 0 001-1V8.286a1 1 0 00-1-1h-3a1 1 0 01-.916-.6L14.344 5zM9.257 8.959a.203.203 0 01.235.019l.04.049.476.791a4 4 0 015.382 1.2l.105.169a4.006 4.006 0 01-2.252 5.889 3.962 3.962 0 01-3.966-.954c-.164-.166-.47-.586-.494-.616-.018-.026-.054-.076-.051-.077a1 1 0 01-.196-.571 1.02 1.02 0 011.016-1.023c.348 0 .652.18.835.451l.07.105c.066.1.162.24.215.293a2.003 2.003 0 003.11-2.467 2.001 2.001 0 00-2.614-.757l-.13.074.525.873a.197.197 0 01.027.085v.046a.198.198 0 01-.171.17h-.055l-3.118-.426a.2.2 0 01-.172-.215l.012-.052 1.088-2.954a.192.192 0 01.084-.102z" fill="none"/>
</svg>
